X:128
T: ES STAND AUF HOHEN BERGEN
N: B0160
O: Europa, Mitteleuropa, Deutschland, Merxheim a.d. Nahe
R: Ballade, Romanze
M: 3/4
L: 1/8
K: A
cd | e2c2cd | c2B2
BB | d2B2Bd | e4
Ac | e2F2AA | F2F2
B2 | EGBdcB | A4
Ac | e2F2AA | F2F2
B2 | EGBdcB | A4

